X:126
T: Jahreszeiten und Liebe
N: A0151B
O: Europa, Mitteleuropa, Deutschland
N: Souterliedekens 1540 ad Ps. 110
R: Romanze, Ballade, Lied
M: 4/2
L: 1/4
K: A
 |  |  | z2A2A2A2 | =c2c2B2B2 | A4z2
A2 | d3=cB2c2- | c2B4A2 | B4z2
B2 | B2B2d2d2 | d2=c4B2 | A=GAB=c2B2 | A2A2=G4
z2G2A4 | B2=c3de2 | d3=cB2A2 | G4A4

